Hatter-kde-dark/actions/24/edit-select.svg

<?xml version="1.0" encoding="UTF-8"?>
<svg viewBox="0 0 24 24" xmlns="http://www.w3.org/2000/svg">
 <defs id="defs3051">
  <style id="current-color-scheme" type="text/css">.ColorScheme-Text {
        color:#dedede;
      }</style>
 </defs>
 <path class="ColorScheme-Text" d="m7 4a1 1 0 0 0-1 1 1 1 0 0 0 1 1 1 1 0 0 0 1-1 1 1 0 0 0-1-1zm1 3 0.0058594 13 3.8945-4.6992 6.0996-0.30078-10-8z" fill="currentColor"/>
</svg>

<svg xmlns="http://www.w3.org/2000/svg" viewBox="0 0 24 24">
  <defs id="defs3051">
    <style type="text/css" id="current-color-scheme">
      .ColorScheme-Text {
        color:#dedede;
      }
      </style>
  </defs>
 <path style="fill:currentColor;fill-opacity:1;stroke:none" 
     d="M 7 4 A 1 1 0 0 0 6 5 A 1 1 0 0 0 7 6 A 1 1 0 0 0 8 5 A 1 1 0 0 0 7 4 z M 8 7 L 8.0058594 20 L 11.900391 15.300781 L 18 15 L 8 7 z "
     class="ColorScheme-Text"
     />
</svg>
